X:668
T:The green meadow
R:Jig
O:Ireland
B:Krassen O'Neill's p63
B:O'Neill's 1062
S:O'Neill's 1062
Z:Transcription, arrangement, chords:Mike Long
M:6/8
L:1/8
K:D
A|\
"D"def AFA|"A"DED AFA|"D"def AFA|"A"EFA "G"B2A|\
"D"def AFA|"A"DED AFA|"G"dcB AGF|"A"EFA B2:|
A|\
"D"Add fdB|"A"cBc ecA|"D"Add fdB|"A"AFA {c}"G"B2A|\
"D"Add fdB|"A"cBc efg|"G"fdB AGF|"A"EFA B2A||
"D"Add fdB|"A"cBc ecA|"D"Add fdB|"A"AFA {c}"G"B2A|\
"D"Aff fed|"A"cee efg|"G"fdB AGF|"A"EFA B2|]
